svgs/sharp-light/robot.svg

<svg xmlns="http://www.w3.org/2000/svg" viewBox="0 0 640 512"><!--! Font Awesome Pro 6.6.0 by @fontawesome - https://fontawesome.com License - https://fontawesome.com/license (Commercial License) Copyright 2024 Fonticons, Inc. --><path d="M336 0l0 16 0 80 176 0 32 0 0 32 0 352 0 32-32 0-384 0-32 0 0-32 0-352 0-32 32 0 176 0 0-80 0-16 32 0zM128 128l0 352 384 0 0-352-176 0-32 0-176 0zm80 256l32 0 16 0 0 32-16 0-32 0-16 0 0-32 16 0zm96 0l32 0 16 0 0 32-16 0-32 0-16 0 0-32 16 0zm96 0l32 0 16 0 0 32-16 0-32 0-16 0 0-32 16 0zM224 224a32 32 0 1 0 0 64 32 32 0 1 0 0-64zm64 32a64 64 0 1 1 -128 0 64 64 0 1 1 128 0zm96 0a32 32 0 1 0 64 0 32 32 0 1 0 -64 0zm32 64a64 64 0 1 1 0-128 64 64 0 1 1 0 128zM32 224l32 0 0 32-32 0 0 128 32 0 0 32-32 0L0 416l0-32L0 256l0-32 32 0zM608 384l0-128-32 0 0-32 32 0 32 0 0 32 0 128 0 32-32 0-32 0 0-32 32 0z"/></svg>

<svg xmlns="http://www.w3.org/2000/svg" viewBox="0 0 640 512"><!--! Font Awesome Pro 6.4.0 by @fontawesome - https://fontawesome.com License - https://fontawesome.com/license (Commercial License) Copyright 2023 Fonticons, Inc. --><path d="M336 0V16 96H512h32v32V480v32H512 128 96V480 128 96h32H304V16 0h32zM128 128V480H512V128H336 304 128zm80 256h32 16v32H240 208 192V384h16zm96 0h32 16v32H336 304 288V384h16zm96 0h32 16v32H432 400 384V384h16zM224 224a32 32 0 1 0 0 64 32 32 0 1 0 0-64zm64 32a64 64 0 1 1 -128 0 64 64 0 1 1 128 0zm96 0a32 32 0 1 0 64 0 32 32 0 1 0 -64 0zm32 64a64 64 0 1 1 0-128 64 64 0 1 1 0 128zM32 224H64v32H32V384H64v32H32 0V384 256 224H32zM608 384V256H576V224h32 32v32V384v32H608 576V384h32z"/></svg>
